X:6465
T:Gooseberry Bush, The
R:reel
D:Matt Molloy & Sean Keane: Contentment Is Wealth
D:Paddy Glackin: In Full Spate
Z:id:hn-reel-322
M:C|
K:Dmix
dB|:ADFD EFGB|AGAB c2AG|ABcA dcAG|FDEF GBAF|
DEFD EFGB|ABcA d2 (3efg|fdde dfed|1 cAGE D2dB:|2 cAGE DEFG||
|:Ad~d2 fded|~c3d cAGc|~A3F GEED|(3EFG AB c2Bc|
Ad~d2 fded|~c3d cAG2|ABcA dcAG|ABcA d2dc:|
|:Ad~d2 fd~d2|efge aged|^cdef g2ef|~g3e d^cAc|
d2^cd GBAG|FGAB c2AG|ABcA dcAG|1 ABcA d2dc:|2 ABcA d2dB||
